icon-svg/garbage-plastic.svg

<?xml version="1.0" encoding="UTF-8" standalone="no"?>
<svg
   id="Livello_1"
   data-name="Livello 1"
   viewBox="0 0 24 24"
   version="1.1"
   width="24"
   height="24"
   xmlns="http://www.w3.org/2000/svg"
   xmlns:svg="http://www.w3.org/2000/svg">
  <path id="Colore_riempimento_1" fill="#44739e" data-name="Colore riempimento 1" class="cls-1"
     d="m 12.369141,0.2109375 c -0.44396,-1.0833e-4 -0.888195,0.003432 -1.332032,0.009766 -0.569529,0.00812 -0.876327,0.26948293 -0.898437,0.6953125 -0.02719,0.5237995 -0.0059,1.0482818 -0.0059,1.6132813 h 4.433594 c 0,-0.5821194 0.02448,-1.1370668 -0.0098,-1.6914063 -0.02418,-0.3911796 -0.35268,-0.6096175 -0.855469,-0.6171875 -0.444083,-0.00655 -0.888072,-0.009657 -1.332031,-0.009766 z m -1.685547,2.71875 c 0.21947,0.5431295 -0.151153,0.8184115 -0.601563,1.0820313 a 4.82368,4.82368 0 0 0 -0.8085935,0.59375 C 7.778209,5.9692074 7.0542212,7.4994131 7.6191406,9.3007812 7.7203105,9.6232909 7.9151823,9.75463 8.3886719,9.75 10.828549,9.72619 13.268717,9.7384512 15.708984,9.7382812 17.016113,9.7381913 17.132266,9.657624 17.285156,8.640625 A 1.80979,1.80979 0 0 0 17.298828,8.3535156 5.04319,5.04319 0 0 0 14.859375,4.1621094 C 14.387515,3.8326797 13.72541,3.5846868 13.96875,2.9296875 Z m 0.210937,1.4902344 c 0.04064,-0.00201 0.0812,-0.00181 0.121094,0.00195 A 13.07726,13.07726 0 0 0 9.3613281,6.4199219 10.01866,10.01866 0 0 0 8.7089844,8.7050781 C 8.0599322,7.2551127 9.6348175,4.4823643 10.894531,4.4199219 Z M 8.0078125,10.074219 v 8.017578 h 8.7265625 v -8.017578 z m 1.0839844,0.83789 0.2089843,0.0039 a 2.14222,2.14222 0 0 1 0.087891,0.427734 c 0.00583,1.788448 0.00295,3.576776 0.00195,5.365234 a 0.8101,0.8101 0 0 1 -0.019531,0.285157 C 9.3477312,17.056074 9.2554967,17.1011 9.1933568,17.15429 9.1262594,17.105517 9.01867,17.065902 9,17.007812 A 1.092,1.092 0 0 1 8.980469,16.673828 c -0.00106,-1.756548 -0.00348,-3.513033 0.00391,-5.269531 a 2.378,2.378 0 0 1 0.1074219,-0.492188 z m 7.3769531,7.552735 c -1.362129,0.02503 -2.726945,0.0098 -4.089844,0.0098 -1.259652,6.4e-4 -2.5196512,7.2e-4 -3.7792966,0 C 7.6571903,18.474079 7.40194,18.629628 7.375,19.373047 c -0.036607,1.054319 -0.03542,2.108977 0,3.162109 0.01854,0.55083 0.4515169,0.947 1.1289062,1.06836 0.6367694,0.11409 1.3563418,0.281175 1.8320318,-0.308594 0.205779,-0.25515 0.443599,-0.238267 0.699218,-0.02344 0.43499,0.3656 1.769907,0.656008 2.160156,0.335938 0.65009,-0.5332 0.96297,-0.394868 1.667969,-0.01172 a 1.79726,1.79726 0 0 0 2.484375,-1.078125 31.36282,31.36282 0 0 0 -0.0039,-3.158203 1.75586,1.75586 0 0 0 -0.162109,-0.507813 C 17.082131,18.570993 16.88027,18.457274 16.46875,18.464844 Z M 8.6152344,19.34375 c 0.07745,0.09528 0.2154531,0.187556 0.2207031,0.285156 0.02404,0.44654 0.011719,0.894488 0.011719,1.341797 -3.699e-4,0.43132 0.010264,0.864152 -0.00977,1.294922 -0.00413,0.08817 -0.1246763,0.173336 -0.1914062,0.259766 -0.08797,-0.08627 -0.2500832,-0.172396 -0.2519532,-0.259766 -0.01812,-0.878652 -0.019406,-1.756347 -0.00195,-2.634766 0.00192,-0.09635 0.1454064,-0.191659 0.2226573,-0.287109 z" />
</svg>

<svg xmlns="http://www.w3.org/2000/svg" data-name="Livello 1" viewBox="0 0 24 24"><path fill="#44739e" d="M12.3691.211a92 92 0 0 0-1.332.0097c-.5695.0081-.8763.2695-.8984.6953-.0272.5238-.006 1.0483-.006 1.6133h4.4337c0-.5821.0244-1.137-.0098-1.6914-.0242-.3912-.3527-.6096-.8555-.6172a92 92 0 0 0-1.332-.0098zm-1.6855 2.7187c.2195.5431-.1512.8184-.6016 1.082a4.82 4.82 0 0 0-.8086.5938c-1.4952 1.3637-2.2192 2.894-1.6543 4.6953.1012.3225.296.4538.7696.4492 2.4398-.0238 4.88-.0115 7.3203-.0117 1.3071-.0001 1.4233-.0807 1.5762-1.0977a1.8 1.8 0 0 0 .0136-.287 5.043 5.043 0 0 0-2.4394-4.1915c-.4719-.3294-1.134-.5774-.8907-1.2324Zm.211 1.4902a.85.85 0 0 1 .121.002 13.1 13.1 0 0 0-1.6543 1.998 10.02 10.02 0 0 0-.6523 2.2852c-.649-1.45.9258-4.2227 2.1855-4.2852m-2.8868 5.6543v8.0176h8.7266v-8.0176zm1.084.838.209.0038a2.14 2.14 0 0 1 .0879.4277c.0058 1.7885.003 3.5768.002 5.3653a.81.81 0 0 1-.0196.2851c-.0234.062-.1156.107-.1777.1602-.0671-.0488-.1747-.0884-.1934-.1465a1.1 1.1 0 0 1-.0195-.334c-.001-1.7565-.0035-3.513.0039-5.2695a2.38 2.38 0 0 1 .1074-.4922m7.377 7.5526c-1.3622.025-2.727.0098-4.0899.0098q-1.8896.0011-3.7793 0c-.9424-.0005-1.1977.155-1.2246.8984a46.3 46.3 0 0 0 0 3.1622c.0185.5508.4515.947 1.129 1.0683.6367.1141 1.3562.2812 1.832-.3086.2057-.2551.4435-.2382.6992-.0234.435.3656 1.7699.656 2.1601.336.6501-.5333.963-.395 1.668-.0118a1.7973 1.7973 0 0 0 2.4844-1.0781 31.4 31.4 0 0 0-.004-3.1582 1.76 1.76 0 0 0-.162-.5078c-.0996-.2806-.3014-.3943-.713-.3868m-7.8536.879c.0775.0952.2155.1875.2207.2851.024.4465.0118.8945.0118 1.3418-.0004.4313.0102.8642-.0098 1.295-.0041.0881-.1247.1733-.1914.2597-.088-.0863-.2501-.1724-.252-.2598a65 65 0 0 1-.002-2.6347c.002-.0964.1455-.1917.2227-.2871" class="cls-1" data-name="Colore riempimento 1"/></svg>
